!!!!SEGMENT: pl-kk--kk-i-7--054-002_certon-pierre--missa-de-sanctis-confessoribus-et-in-terra.krn
!!!cenid: 16xx:880
!!!COM: Certon, Pierre
!!!COM-rismid: pe30006023
!!!CDT: ~1510-1572/02/23
!!!CNT: French
!!!OPR: Missa de Sanctis Confessoribus
!!!OTL: Et in terra
!!!OMV: 002
!!!PDT:
!!!AGN: Sacred; Mass
!!!SMS-siglum: PL-Kk
!!!SMS-shelfmark: Kk.I.7
!!!SMS-shelfwork: 054-002 M
!!!SMS-variant:
!!!SMS-altvar:
!!!NIFC-rismid: 300258131
!!!URL-scan: http://repozytorium.nifc.pl/skany/pl-kk-nut--i-7
!!!ONB-nifc: UWAGA: C (skan 0051-0052, s.95-97), A (0135-0136, s.91-93), T(0211-0212. s.85-87), B(0299-0300, s.85-86). Części Mszy: 1. Kyrie, 2. Et in terra, 3. Sanctus, 4. Agnus Dei. "Agnus II" rozpisany na 5 głosów. Głos dodatkowy zapisany w księdze A na stronie 93
**kern	**text	**kern	**text	**kern	**text	**kern	**text
*part4	*part4	*part3	*part3	*part2	*part2	*part1	*part1
*staff4	*staff4	*staff3	*staff3	*staff2	*staff2	*staff1	*staff1
*group1	*	*group1	*	*group1	*	*group1	*
*Ibass	*	*Itenor	*	*Ialto	*	*Isoprn	*
*I"BASSVS.	*	*I"TENOR.	*	*I"ALTVS.	*	*I"CANTVS.	*
*I'B	*	*I'T	*	*I'A	*	*I'S	*
*clefF4	*	*clefC4	*	*clefC3	*	*clefC1	*
*k[b-]	*	*k[b-]	*	*k[b-]	*	*k[b-]	*
*g:	*	*g:	*	*g:	*	*g:	*
*M2/1	*	*M2/1	*	*M2/1	*	*M2/1	*
*met(C|)	*	*met(C|)	*	*met(C|)	*	*met(C|)	*
=1-	=1-	=1-	=1-	=1-	=1-	=1-	=1-
!LO:TX:t=P:problem:przy kluczu BB- B-	!	!	!	!	!	!LO:TX:t=P:problem:kreska pseudotaktowa	!
00r	.	00rc	.	1.g	Et	1rdd	.
.	.	.	.	.	.	1dd	Et
*	*	*	*	*2\right	*	*2\right	*
.	.	.	.	2g\	in	.	.
=2-	=2-	=2-	=2-	=2-	=2-	=2-	=2-
.	.	.	.	1f	ter-	2dd\	in
.	.	.	.	.	.	2cc\	ter-
.	.	.	.	1g	-ra	1b-	.
=3-	=3-	=3-	=3-	=3-	=3-	=3-	=3-
!LO:TX:t=P:problem:kreska pseudotaktowa	!	!LO:TX:t=P:problem:kreska pseudotaktowa	!	!LO:TX:t=P:problem:kreska pseudotaktowa	!	!	!
1r	.	0r	.	0d	pax	2a\	-ra
.	.	.	.	.	.	2.b-\	pax
0G	Ho-	.	.	.	.	.	.
.	.	.	.	.	.	4a/	.
.	.	.	.	.	.	4g/	.
!	!	!	!	!	!	!LO:TX:t=P:problem:kreska pseudotaktowa	!
.	.	.	.	.	.	4f/	.
=4-	=4-	=4-	=4-	=4-	=4-	=4-	=4-
!	!	!	!	!LO:TX:t=P:problem:kreska pseudotaktowa	!	!	!
.	.	1d	Ho-	0r	.	2g\	.
.	.	.	.	.	.	1b-	ho-
1F	.	4d\	-mi-	.	.	.	.
.	.	4c\	.	.	.	.	.
.	.	4B-\	.	.	.	1a	-mi-
.	.	4A\	.	.	.	.	.
=5-	=5-	=5-	=5-	=5-	=5-	=5-	=5-
*2\right	*	*2\right	*	*	*	*	*
2G\	-mi-	2B-\	.	0d	bo-	.	.
2G\	-ni-	2B-\	-ni-	.	.	2g\	-ni-
!LO:TX:t=P:problem:kreska pseudotaktowa	!	!LO:TX:t=P:problem:kreska pseudotaktowa	!	!	!	!LO:TX:t=P:problem:kreska pseudotaktowa	!
0D	-b(us)	1A	-b(us)	.	.	1a	-b(us)
=6-	=6-	=6-	=6-	=6-	=6-	=6-	=6-
!	!	!	!	!LO:TX:t=P:problem:kreska pseudotaktowa	!	!	!
.	.	1A	bo-	1d	-nae	1f	bo-
!	!	!	!	!	!	!LO:TX:t=P:problem:kreska pseudotaktowa	!
1r	.	1.B-	-nae	1.d	vo-	1f	-nae
=7-	=7-	=7-	=7-	=7-	=7-	=7-	=7-
1G	bo-	.	.	.	.	1g	vo-
!	!	!LO:TX:t=P:problem:kreska pseudotaktowa	!	!	!	!	!
.	.	2B-\	vo-	2e\	-lun-	.	.
2F\	-nae	2c\	-lun-	1f	-ta-	2a\	-lun-
2BB-/	Vo-	2d\	-ta-	.	.	2b-\	.
=8-	=8-	=8-	=8-	=8-	=8-	=8-	=8-
2C/	-lun-	4c\	.	2e\	.	2a\	-ta-
.	.	4B-\	.	.	.	.	.
2E\	.	4A/	.	2c\	.	1g	.
.	.	4G/	.	.	.	.	.
1D	-ta-	1A	.	1d	.	.	.
!	!	!	!	!	!	!LO:TX:t=P:problem:kreska pseudotaktowa	!
.	.	.	.	.	.	2f/	.
=9-	=9-	=9-	=9-	=9-	=9-	=9-	=9-
!LO:TX:t=P:problem:kreska pseudotaktowa	!	!LO:TX:t=P:problem:kreska pseudotaktowa	!	!LO:TX:t=P:problem:kreska pseudotaktowa	!	!LO:TX:t=P:problem:kreska pseudotaktowa	!
0GG	-tis	0G	-tis.	1B-	-tis.	1g	-tis.
.	.	.	.	2r	.	2rb	.
.	.	.	.	2d\	Lau-	1dd	Lau-
=10-	=10-	=10-	=10-	=10-	=10-	=10-	=10-
0r	.	0r	.	1f	-da-	.	.
.	.	.	.	.	.	2cc\	-da-
.	.	.	.	1g	-m(us)	1b-	-m(us)
=11-	=11-	=11-	=11-	=11-	=11-	=11-	=11-
!	!	!	!	!LO:TX:t=P:problem:kreska pseudotaktowa	!	!LO:TX:t=P:problem:kreska pseudotaktowa	!
2rBB	.	2r	.	1d	Te.	1a	Te
2D\	be-	2d\	be-	.	.	.	.
2F\	-ne-	2d\	-ne-	1rg	.	1r	.
!LO:TX:t=P:problem:kreska pseudotaktowa	!	!	!	!	!	!	!
2F\	-di-	2c\	-di-	.	.	.	.
=12-	=12-	=12-	=12-	=12-	=12-	=12-	=12-
2G\	-ci-	2B-\	-ci-	2r	.	2r	.
2G\	-m(us)	2B-\	-m(us)	2d\	a-	1dd	a-
!LO:TX:t=P:problem:kreska pseudotaktowa	!	!LO:TX:t=P:problem:kreska pseudotaktowa	!	!	!	!	!
1D	Te.	1A	Te	2f\	-do-	.	.
.	.	.	.	2f\	-ra-	2cc\	-do-
=13-	=13-	=13-	=13-	=13-	=13-	=13-	=13-
1rA	.	1r	.	1g	-m(us)	2b-\	-ra-
!	!	!	!	!	!	!LO:TX:t=P:problem:kreska pseudotaktowa	!
.	.	.	.	.	.	2b-\	-m(us)
2r	.	2r	.	2d,\	Te.	2a\	Te
2D\	glo-	2d\	glo-	2f\	glo-	1b-	glo-
=14-	=14-	=14-	=14-	=14-	=14-	=14-	=14-
2F\	-ri-	2d\	-ri-	2f\	-ri-	.	.
!	!	!	!	!LO:TX:t=P:problem:kreska pseudotaktowa	!	!	!
2F\	-fi-	2c\	-fi-	2f\	-fi-	2a\	-ri-
!	!	!	!	!	!	!LO:TX:t=P:problem:kreska pseudotaktowa	!
2G\	-ca-	2B-\	-ca-	1d	-ca-	1g	-fi-
!LO:TX:t=P:problem:kreska pseudotaktowa	!	!LO:TX:t=P:problem:kreska pseudotaktowa	!	!	!	!	!
2G\	-m(us)	2B-\	.	.	.	.	.
!	!	!	!	!	!	!LO:LB:g=original	!
=15-	=15-	=15-	=15-	=15-	=15-	=15-	=15-
2.D\	Te	2A\	-m(us)	2d\	.	2.f/	-ca-
.	.	2d\	Te	1f	.	.	.
4E\	.	.	.	.	.	4g/	.
2F\	.	2c\	.	.	.	2a\	.
2G\	.	2B-\	.	2d\	.	2b-\	.
=16-	=16-	=16-	=16-	=16-	=16-	=16-	=16-
2C/	.	4c\	.	2e\	.	2a\	.
.	.	4B-\	.	.	.	.	.
2E\	.	4A/	.	2c\	.	1g	-mus
.	.	4G/	.	.	.	.	.
!LO:TX:t=P:problem:kreska pseudotaktowa	!	!	!	!	!	!	!
1D	.	1A	.	1d	-mus	.	.
.	.	.	.	.	.	2f/	.
=17-	=17-	=17-	=17-	=17-	=17-	=17-	=17-
!	!	!LO:TX:t=P:problem:kreska pseudotaktowa	!	!LO:TX:t=P:problem:kreska pseudotaktowa	!	!LO:TX:t=P:problem:kreska pseudotaktowa	!
2r	.	1G	.	0B-	Te.	0g	Te.
2.G\	Gra-	.	.	.	.	.	.
!	!	!LO:LB:g=original	!	!	!	!	!
.	.	2r	.	.	.	.	.
4G\	-ti-	.	.	.	.	.	.
!LO:TX:t=P:problem:kreska pseudotaktowa	!	!	!	!	!	!	!
!LO:SIC:v:t=custos G	!	!	!	!	!	!	!
2G\	-as	2.d\	Gra-	.	.	.	.
=18-	=18-	=18-	=18-	=18-	=18-	=18-	=18-
!	!	!	!	!LO:TX:a:t=11.	!	!	!
1G	a-	.	.	00re	.	00r	.
.	.	4d\	-ti-	.	.	.	.
!	!	!LO:TX:t=P:problem:kreska pseudotaktowa	!	!	!	!	!
.	.	2d\	-as	.	.	.	.
2G\	-gi-	2d\	a-	.	.	.	.
2F\	-m(us)	2d\	-gi-	.	.	.	.
=19-	=19-	=19-	=19-	=19-	=19-	=19-	=19-
2E\	Ti-	2c\	-m(us)	.	.	.	.
!LO:TX:t=P:problem:kreska pseudotaktowa	!	!	!	!	!	!	!
2D\	-bi	2B-\	Ti-	.	.	.	.
!	!	!LO:TX:t=P:problem:kreska pseudotaktowa	!	!	!	!	!
*	*	*col	*	*	*	*	*
2r	.	0A	-bi	.	.	.	.
*	*	*Xcol	*	*	*	*	*
2D\	pro-	.	.	.	.	.	.
=20-	=20-	=20-	=20-	=20-	=20-	=20-	=20-
2.F\	-pter	.	.	00re	.	00r	.
4E\	.	.	.	.	.	.	.
2D/	ma-	2rF	.	.	.	.	.
!LO:TX:t=P:problem:kreska pseudotaktowa	!	!	!	!	!	!	!
2C/	-gna(m)	2G/	p(ro)-	.	.	.	.
=21-	=21-	=21-	=21-	=21-	=21-	=21-	=21-
2D/	glo-	2.B-\	-pter	.	.	.	.
2BB-/	.	.	.	.	.	.	.
.	.	4A/	.	.	.	.	.
2C/	-ri-	2G/	ma-	.	.	.	.
!LO:TX:t=P:problem:kreska pseudotaktowa	!	!	!	!	!	!	!
2D\	-a(m)	2F/	-gna(m)	.	.	.	.
=22-	=22-	=22-	=22-	=22-	=22-	=22-	=22-
2GG/	tu-	2G/	gl(o-	0rg	.	0r	.
!	!	!LO:TX:t=P:problem:kreska pseudotaktowa	!	!	!	!	!
2C/	.	2A\	-ri)-	.	.	.	.
2BB-/	.	2D,</	-a(m)	.	.	.	.
4AA/	.	1G	Do-	.	.	.	.
4GG/	.	.	.	.	.	.	.
=23-	=23-	=23-	=23-	=23-	=23-	=23-	=23-
!	!	!	!	!LO:TX:t=P:problem:kreska pseudotaktowa	!	!	!
!	!	!	!	!LO:SIC:v:t=custos dd	!	!LO:TX:t=P:problem:kreska pseudotaktowa	!
1AA	.	.	.	1rg	.	1r	.
!	!	!LO:TX:t=P:problem:kreska pseudotaktowa	!	!	!	!	!
.	.	2F/	-mi-	.	.	.	.
!	!	!	!	!LO:LB:g=original	!	!	!
2GG,</	-am	2G,</	-ne	2r	.	2re	.
1G	Do-	1B-	DE-	1d	Do-	1g	Do-
=24-	=24-	=24-	=24-	=24-	=24-	=24-	=24-
.	.	.	.	.	.	.	.
!LO:TX:t=P:problem:kreska pseudotaktowa	!	!LO:TX:t=P:problem:kreska pseudotaktowa	!	!	!	!	!
2G\	-mi-	2B-\	.	2d\	-mi-	2g/	-mi-
2G\	-ne	2B-,<\	-US	2d\	-ne	2g\	-ne
2GG/	DE-	2B-\	Rex	2d\	DE-	2g\	DE-
=25-	=25-	=25-	=25-	=25-	=25-	=25-	=25-
!	!	!	!	!LO:TX:t=P:problem:kreska pseudotaktowa	!	!LO:TX:t=P:problem:kreska pseudotaktowa	!
1D	-(us)	2A\	coe-	1d	-(us)	1f	-US
!	!	!LO:TX:t=P:problem:kreska pseudotaktowa	!	!	!	!	!
.	.	2A\	-le-	.	.	.	.
2C/	Rex	2c\	.	2e\	Rex	2g\	Rex
2BB-/	coe-	1d	.	1f	coe-	1b-	coe-
=26-	=26-	=26-	=26-	=26-	=26-	=26-	=26-
*lig	*	*	*	*	*	*	*
1F	-le-	.	.	.	.	.	.
.	.	1c	.	2f\	.	1a	.
1G	.	.	.	2.d\	-le-	.	.
.	.	2B-\	.	.	.	2g/	-le-
.	.	.	.	4e\	.	.	.
*Xlig	*	*	*	*	*	*	*
=27-	=27-	=27-	=27-	=27-	=27-	=27-	=27-
!LO:TX:t=P:problem:kreska pseudotaktowa	!	!	!	!LO:TX:t=P:problem:kreska pseudotaktowa	!	!LO:TX:t=P:problem:kreska pseudotaktowa	!
1F	-ſtis	2c,<\	-stis	0f	-ſtis.	1a	-ſtis
.	.	2c\	DE-	.	.	.	.
1F	DE-	2c\	-(us)	.	.	2cc\	.
!	!	!LO:TX:t=P:problem:kreska pseudotaktowa	!	!	!	!	!
.	.	2c\	Pa-	.	.	2cc\	DE-
=28-	=28-	=28-	=28-	=28-	=28-	=28-	=28-
2F\	-(us)	2A\	-ter	2r	.	2cc\	-(us)
2F\	Pa-	2A\	o-	2f\	DE-	1a	Pa-
2D,\	-ter	2.d\	.	2f\	-us	.	.
!LO:TX:t=P:problem:kreska pseudotaktowa	!	!	!	!	!	!	!
2D\	O-	.	.	2f\	Pa-	2a\	-ter
.	.	4c\	.	.	.	.	.
=29-	=29-	=29-	=29-	=29-	=29-	=29-	=29-
1G	.	4B-\	.	2d\	-ter	1b-	O-
.	.	4A\	.	.	.	.	.
.	.	2B-\	-mni-	1e	O-	.	.
2F\	.	2c\	.	.	.	2a\	-mni-
4E\	.	2F/	-po-	1d	-mni-	1b-	-po-
4D\	.	.	.	.	.	.	.
=30-	=30-	=30-	=30-	=30-	=30-	=30-	=30-
!LO:TX:t=P:problem:♮ above	!	!	!	!	!	!	!
2.En\	-mni-	1G	.	.	.	.	.
.	.	.	.	2c\	-po-	4a/	.
4E\	-po-	.	.	.	.	4g/	.
!LO:TX:t=P:problem:kreska pseudotaktowa	!	!LO:TX:t=P:problem:kreska pseudotaktowa	!	!LO:TX:t=P:problem:kreska pseudotaktowa	!	!LO:TX:t=P:problem:kreska pseudotaktowa	!
1D	-tens	1A	-tens	0d	-tens	0f	-tens.
!	!	!LO:LB:g=original	!	!	!	!	!
=31-	=31-	=31-	=31-	=31-	=31-	=31-	=31-
2rBB	.	2rD	.	.	.	.	.
1BB-	Do-	1D	Do-	.	.	.	.
.	.	.	.	0r	.	0r	.
!LO:TX:t=P:problem:kreska pseudotaktowa	!	!LO:TX:t=P:problem:kreska pseudotaktowa	!	!	!	!	!
2BB-/	-mi-	2D/	-mi-	.	.	.	.
=32-	=32-	=32-	=32-	=32-	=32-	=32-	=32-
2AA/	-ne	2E/	-ne	.	.	.	.
2GG/	.	1G	Fi-	.	.	.	.
!	!	!	!	!LO:TX:t=P:problem:kreska pseudotaktowa	!	!	!
1D	Fi-	.	.	1r	.	1r	.
.	.	2F/	.	.	.	.	.
=33-	=33-	=33-	=33-	=33-	=33-	=33-	=33-
!LO:TX:t=P:problem:kreska pseudotaktowa	!	!LO:TX:t=P:problem:kreska pseudotaktowa	!	!	!	!	!
0GG	-li	0G	-li	2rA	.	2rc	.
.	.	.	.	1B-	U-	1d	U-
.	.	.	.	2B-/	-ni-	2d/	-ni-
=34-	=34-	=34-	=34-	=34-	=34-	=34-	=34-
0r	.	1rA	.	2A/	-ge-	2e/	-ge-
.	.	.	.	2G/	-ni-	1g	-ni-
!	!	!	!	!LO:TX:t=P:problem:kreska pseudotaktowa	!	!	!
.	.	1D	Je-	1d	-te	.	.
.	.	.	.	.	.	2f/	-te
=35-	=35-	=35-	=35-	=35-	=35-	=35-	=35-
!	!	!	!	!	!	!LO:TX:t=P:problem:kreska pseudotaktowa	!
2G\	Je-	2.G/	-su	1rc	.	0g	.
2GG/	-su	.	.	.	.	.	.
.	.	4F/	.	.	.	.	.
1.C	Chri-	4E/	.	1G	Je-	.	.
.	.	4D/	.	.	.	.	.
.	.	2.E/	.	.	.	.	.
=36-	=36-	=36-	=36-	=36-	=36-	=36-	=36-
!	!	!	!	!LO:TX:t=P:problem:kreska pseudotaktowa	!	!	!
.	.	.	.	1c	-su	0r	.
.	.	4D/	.	.	.	.	.
2BB-/	.	1G	Chri-	.	.	.	.
1AA	.	.	.	1c	.	.	.
!	!	!LO:TX:t=P:problem:kreska pseudotaktowa	!	!	!	!	!
.	.	2F/	.	.	.	.	.
=37-	=37-	=37-	=37-	=37-	=37-	=37-	=37-
00GG	.	2G/	.	1.B-	X-	0d	Je-
.	.	2D/	.	.	.	.	.
.	.	1.G	.	.	.	.	.
.	.	.	.	4A/	.	.	.
.	.	.	.	4G/	.	.	.
=38-	=38-	=38-	=38-	=38-	=38-	=38-	=38-
.	.	.	.	[0dl;	-te.	1g	-su
.	.	2A\	.	.	.	.	.
.	.	1B-	.	.	.	1g	Chri-
=39-	=39-	=39-	=39-	=39-	=39-	=39-	=39-
0Dl;	-ste.	0Al;	-ste	0d]	.	0f#Xl;	-ſte
!	!	!	!	!LO:LB:g=original	!	!LO:LB:g=original	!
=40||	=40||	=40||	=40||	=40||	=40||	=40||	=40||
*M2/1	*	*M2/1	*	*M2/1	*	*M2/1	*
*met(C|)	*	*met(C|)	*	*met(C|)	*	*met(C|)	*
!LO:TX:t=P:problem:kreska pseudotaktowa	!	!	!	!LO:TX:a:t=Domine DEUS\nTacet	!	!LO:TX:a:t=Domine DEUS\nTacet	!
00r	.	1.G	Do-	0ryy	.	0ryy	.
.	.	2G/	-mi-	.	.	.	.
=41-	=41-	=41-	=41-	=41-	=41-	=41-	=41-
.	.	1B-	-ne	0ryy	.	0ryy	.
.	.	1c	DE-	.	.	.	.
=42-	=42-	=42-	=42-	=42-	=42-	=42-	=42-
!LO:TX:a:t=à 2.	!	!LO:TX:t=P:problem:kreska pseudotaktowa	!	!	!	!	!
1.D	Do-	1A	-(us)	0ryy	.	0ryy	.
.	.	2r	.	.	.	.	.
2D\	-mi-	2d\	A-	.	.	.	.
=43-	=43-	=43-	=43-	=43-	=43-	=43-	=43-
1F	-ne	2c\	-gn(us)	0ryy	.	0ryy	.
.	.	2.d\	De-	.	.	.	.
1G	DE-	.	.	.	.	.	.
.	.	4c\	.	.	.	.	.
.	.	4B-\	.	.	.	.	.
!	!	!LO:TX:t=P:problem:kreska pseudotaktowa	!	!	!	!	!
.	.	4A\	.	.	.	.	.
=44-	=44-	=44-	=44-	=44-	=44-	=44-	=44-
!LO:TX:t=P:problem:kreska pseudotaktowa	!	!	!	!	!	!	!
1E	-(us)	2G/	.	0ryy	.	0ryy	.
.	.	2c\	.	.	.	.	.
2r	.	2B-\	.	.	.	.	.
2D\	A-	2.A\	.	.	.	.	.
=45-	=45-	=45-	=45-	=45-	=45-	=45-	=45-
2C/	-gnus	.	.	0ryy	.	0ryy	.
.	.	4G/	.	.	.	.	.
2.D/	De-	4F/	.	.	.	.	.
.	.	4E/	.	.	.	.	.
.	.	2D/	.	.	.	.	.
4C/	.	.	.	.	.	.	.
!	!	!LO:TX:t=P:problem:kreska pseudotaktowa	!	!	!	!	!
!	!	!LO:SIC:v:t=custos E	!	!	!	!	!
4BB-/	.	2F/	.	.	.	.	.
4AA/	.	.	.	.	.	.	.
!	!	!LO:LB:g=original	!	!	!	!	!
=46-	=46-	=46-	=46-	=46-	=46-	=46-	=46-
4GG/	.	2E/	.	0ryy	.	0ryy	.
4AA/	.	.	.	.	.	.	.
4BB-/	.	4D/	.	.	.	.	.
4C/	.	4E/	.	.	.	.	.
4D\	.	4F/	.	.	.	.	.
4E\	.	4G/	.	.	.	.	.
4F\	.	4A/	.	.	.	.	.
4D\	.	4B-/	.	.	.	.	.
=47-	=47-	=47-	=47-	=47-	=47-	=47-	=47-
4E\	.	2c\	.	0ryy	.	0ryy	.
4D\	.	.	.	.	.	.	.
4C/	.	1B-	.	.	.	.	.
4BB-/	.	.	.	.	.	.	.
1C	.	.	.	.	.	.	.
.	.	2A\	.	.	.	.	.
=48-	=48-	=48-	=48-	=48-	=48-	=48-	=48-
!LO:TX:t=P:problem:kreska pseudotaktowa	!	!LO:TX:t=P:problem:kreska pseudotaktowa	!	!	!	!	!
0BB-	-i,	1B-	-i	0ryy	.	0ryy	.
.	.	2rF	.	.	.	.	.
.	.	1F/	Fi-	.	.	.	.
=49-	=49-	=49-	=49-	=49-	=49-	=49-	=49-
2rBB	.	.	.	0ryy	.	0ryy	.
1BB-	Fi-	2F/	-li-	.	.	.	.
.	.	1G	-(us)	.	.	.	.
2BB-/	-li-	.	.	.	.	.	.
=50-	=50-	=50-	=50-	=50-	=50-	=50-	=50-
!	!	!LO:TX:t=P:problem:kreska pseudotaktowa	!	!	!	!	!
2C/	-(us)	1A	Pa-	0ryy	.	0ryy	.
2D\	Pa-	.	.	.	.	.	.
2GG/	.	1B-	.	.	.	.	.
2.D/	.	.	.	.	.	.	.
=51-	=51-	=51-	=51-	=51-	=51-	=51-	=51-
.	.	2A\	.	0ryy	.	0ryy	.
4C/	.	.	.	.	.	.	.
4D/	.	2d\	.	.	.	.	.
!LO:TX:t=P:problem:kreska pseudotaktowa	!	!	!	!	!	!	!
!LO:SIC:v:t=custos F	!	!	!	!	!	!	!
4E/	.	.	.	.	.	.	.
2F\	.	2c\	.	.	.	.	.
2G\	.	1B-	.	.	.	.	.
=52-	=52-	=52-	=52-	=52-	=52-	=52-	=52-
1E	.	.	.	0ryy	.	0ryy	.
.	.	4A/	.	.	.	.	.
!	!	!LO:TX:t=P:problem:kreska pseudotaktowa	!	!	!	!	!
.	.	4G/	.	.	.	.	.
2.D/	.	2.F/	.	.	.	.	.
4BB-/	.	4G/	.	.	.	.	.
=53-	=53-	=53-	=53-	=53-	=53-	=53-	=53-
2C/	.	2A\	.	0ryy	.	0ryy	.
2D\	.	2.B-\	.	.	.	.	.
2GG/	.	.	.	.	.	.	.
.	.	4A/	.	.	.	.	.
2.C/	.	4G/	.	.	.	.	.
!	!	!LO:TX:t=P:problem:kreska pseudotaktowa	!	!	!	!	!
.	.	4F/	.	.	.	.	.
=54-	=54-	=54-	=54-	=54-	=54-	=54-	=54-
.	.	4E/	.	0ryy	.	0ryy	.
4BB-/	.	4D/	.	.	.	.	.
4AA/	.	1G	.	.	.	.	.
4GG/	.	.	.	.	.	.	.
1AA	.	.	.	.	.	.	.
!	!	!LO:TX:t=P:problem:♯ above	!	!	!	!	!
.	.	2F#X/	.	.	.	.	.
=55-	=55-	=55-	=55-	=55-	=55-	=55-	=55-
0GGl;	-tris.	0Gl;	-tris.	0ryy	.	0ryy	.
=56||	=56||	=56||	=56||	=56||	=56||	=56||	=56||
*M2/1	*	*M2/1	*	*M2/1	*	*M2/1	*
*met(C|)	*	*met(C|)	*	*met(C|)	*	*met(C|)	*
1BB-	Qui	1d	Qui	1f	Qui	1b-	Qui
!	!	!LO:TX:t=P:problem:kreska pseudotaktowa	!	!	!	!	!
1BB-	tol-	1d	tol-	1f	tol-	1b-	tol-
=57-	=57-	=57-	=57-	=57-	=57-	=57-	=57-
2BB-/	-lis	2d\	-lis	2f\	-lis	2b-\	-lis
2BB-/	pec-	2d\	pec-	2f\	p(ec)-	2b-\	pec-
2F\	-ca-	2c\	-ca-	2f\	-c(a)-	2a\	-ca-
!	!	!	!	!LO:TX:t=P:problem:kreska pseudotaktowa	!	!	!
2F\	-ta	2c\	-ta	2f\	-ta	2a\	-ta
=58-	=58-	=58-	=58-	=58-	=58-	=58-	=58-
1G	mun-	1B-	mun-	1d	mun-	1g	mun-
!LO:TX:t=P:problem:kreska pseudotaktowa	!	!LO:TX:t=P:problem:kreska pseudotaktowa	!	!LO:TX:t=P:problem:kreska pseudotaktowa	!	!LO:TX:t=P:problem:kreska pseudotaktowa	!
1D	-di	1A	-di	0d	-di	0fny	-di
=59-	=59-	=59-	=59-	=59-	=59-	=59-	=59-
2r	.	2rF	.	.	.	.	.
2D\	mi-	2F/	mi-	.	.	.	.
2D\	-ſe-	2F/	-ſe-	0r	.	0r	.
!	!	!LO:TX:t=P:problem:kreska pseudotaktowa	!	!	!	!	!
2D\	-re-	2F/	-re-	.	.	.	.
!	!	!LO:LB:g=original	!	!	!	!	!
=60-	=60-	=60-	=60-	=60-	=60-	=60-	=60-
2C/	-re	2G/	-re	.	.	.	.
2BB-/	.	1B-	no-	.	.	.	.
!	!	!	!	!LO:TX:t=P:problem:kreska pseudotaktowa	!	!LO:TX:t=P:problem:kreska pseudotaktowa	!
1C	no-	.	.	1r	.	1r	.
.	.	2A\	.	.	.	.	.
=61-	=61-	=61-	=61-	=61-	=61-	=61-	=61-
!LO:TX:t=P:problem:kreska pseudotaktowa	!	!LO:TX:t=P:problem:kreska pseudotaktowa	!	!	!	!	!
0BB-	-bis.	0B-	-bis.	2r	.	2re	.
.	.	.	.	2d\	mi-	2f/	mi-
.	.	.	.	2d\	-ſe-	2f/	-ſe-
!	!	!	!	!LO:TX:t=P:problem:kreska pseudotaktowa	!	!	!
.	.	.	.	2d\	-re-	2f/	-re-
=62-	=62-	=62-	=62-	=62-	=62-	=62-	=62-
0r	.	0r	.	2c/	-re	2g\	-re
.	.	.	.	2B-/	no-	1b-	no-
.	.	.	.	1c	.	.	.
!	!	!	!	!	!	!LO:TX:t=P:problem:kreska pseudotaktowa	!
.	.	.	.	.	.	2a\	.
=63-	=63-	=63-	=63-	=63-	=63-	=63-	=63-
2r	.	2r	.	2B-,/	-bis	2b-,<\	-bis.
2BB-/	Qui	2B-\	Qui	2f\	Qui	2dd\	Qui
!	!	!LO:TX:t=P:problem:kreska pseudotaktowa	!	!	!	!	!
1BB-	tol-	1B-	tol-	1f	tol-	1dd	tol-
=64-	=64-	=64-	=64-	=64-	=64-	=64-	=64-
2BB-/	-lis	2B-\	-lis	1.f	-lis	1.dd	-lis
2BB-/	p(ec)-	2B-\	pec-	.	.	.	.
1BB-	-c(a)-	1B-	-ca-	.	.	.	.
!	!	!	!	!LO:TX:t=P:problem:kreska pseudotaktowa	!	!	!
.	.	.	.	2f\	p(ec)-	2dd\	pec-
=65-	=65-	=65-	=65-	=65-	=65-	=65-	=65-
!LO:TX:t=P:problem:kreska pseudotaktowa	!	!LO:TX:t=P:problem:kreska pseudotaktowa	!	!	!	!	!
1F	-ta	1A	-ta	2f\	-c(a)-	2cc\	-ca-
!	!	!	!	!	!	!LO:TX:t=P:problem:kreska pseudotaktowa	!
.	.	.	.	2f\	-ta	2cc\	-ta
1G	mun-	1B-	mun-	2d\	mun-	1b-	mun-
.	.	.	.	2e\	.	.	.
=66-	=66-	=66-	=66-	=66-	=66-	=66-	=66-
!LO:TX:t=P:problem:kreska pseudotaktowa	!	!LO:TX:t=P:problem:kreska pseudotaktowa	!	!LO:TX:t=P:problem:kreska pseudotaktowa	!	!LO:TX:t=P:problem:kreska pseudotaktowa	!
1F	-di	1c	-di.	1f	-di	1a	-di.
1.D	Suſ-	1.d	Suſ-	1.f	Suſ-	1.a	Suſ-
=67-	=67-	=67-	=67-	=67-	=67-	=67-	=67-
.	.	.	.	.	.	.	.
2D\	-ci-	2d\	-ci-	2f\	-ci-	2a\	-ci-
!LO:TX:t=P:problem:kreska pseudotaktowa	!	!LO:TX:t=P:problem:kreska pseudotaktowa	!	!LO:TX:t=P:problem:kreska pseudotaktowa	!	!LO:TX:t=P:problem:kreska pseudotaktowa	!
1D	-pe	1d	-pe	1f	-pe	1a	-pe
=68-	=68-	=68-	=68-	=68-	=68-	=68-	=68-
1.G	de-	1.d	de-	1.g	de-	1.b-	de-
2G\	-pre-	2d\	-pre-	2g\	-pre-	2b-\	-pre-
=69-	=69-	=69-	=69-	=69-	=69-	=69-	=69-
2G\	-ca-	2d\	-ca-	2g\	-ca-	2b-\	-ca-
!LO:TX:t=P:problem:kreska pseudotaktowa	!	!	!	!	!	!	!
!LO:SIC:v:t=custos C	!	!LO:TX:t=P:problem:kreska pseudotaktowa	!	!	!	!	!
2G\	-ti-	2d\	-ti-	2g\	-ti-	2b-\	-ti-
1C	-o-	1e	-o-	0g	-o-	1cc	-o-
=70-	=70-	=70-	=70-	=70-	=70-	=70-	=70-
!	!	!	!	!	!	!LO:TX:t=P:problem:kreska pseudotaktowa	!
!LO:TX:t=P:problem:kreska pseudotaktowa	!	!	!	!	!	!LO:SIC:v:t=custos dd	!
1G	-nem	2d\	-nem	.	.	1dd	-nem
.	.	1B-	no-	.	.	.	.
*lig	*	*	*	*	*	*	*
!	!	!	!	!	!	!LO:LB:g=original	!
1D	no-	.	.	1f	-nem	1.dd	no-
.	.	2A\	.	.	.	.	.
=71-	=71-	=71-	=71-	=71-	=71-	=71-	=71-
*	*	*lig	*	*	*	*	*
1G	.	1B-	.	0g	no-	.	.
.	.	.	.	.	.	4cc\	.
.	.	.	.	.	.	4b-\	.
*Xlig	*	*	*	*	*	*	*
1E	.	1G	.	.	.	1cc	.
*	*	*Xlig	*	*	*	*	*
=72-	=72-	=72-	=72-	=72-	=72-	=72-	=72-
!LO:TX:t=P:problem:kreska pseudotaktowa	!	!LO:TX:t=P:problem:kreska pseudotaktowa	!	!LO:TX:t=P:problem:kreska pseudotaktowa	!	!LO:TX:t=P:problem:kreska pseudotaktowa	!
1D	-stram	1A	-stram	0f	-ſtram	0dd	-stram.
2r	.	1r	.	.	.	.	.
2D\	Qui	.	.	.	.	.	.
!	!	!	!	!LO:LB:g=original	!	!	!
=73-	=73-	=73-	=73-	=73-	=73-	=73-	=73-
2D\	se-	2r	.	00r	.	00r	.
2D\	.	2A\	Qui	.	.	.	.
1.F	-des	2A\	se-	.	.	.	.
.	.	2A\	-des	.	.	.	.
=74-	=74-	=74-	=74-	=74-	=74-	=74-	=74-
.	.	1c	ad	.	.	.	.
!LO:TX:t=P:problem:kreska pseudotaktowa	!	!	!	!	!	!	!
2E\	ad	.	.	.	.	.	.
2D/	dex-	2B-\	dex-	.	.	.	.
4C/	-te-	2A\	.	.	.	.	.
4D/	.	.	.	.	.	.	.
=75-	=75-	=75-	=75-	=75-	=75-	=75-	=75-
4E\	.	2G/	-te-	00r	.	00r	.
4F\	.	.	.	.	.	.	.
1G	-ram	2B-\	-ra(m)	.	.	.	.
.	.	1A	P(a-	.	.	.	.
2F\	Pa-	.	.	.	.	.	.
=76-	=76-	=76-	=76-	=76-	=76-	=76-	=76-
!	!	!LO:TX:t=P:problem:kreska pseudotaktowa	!	!	!	!	!
2G,<\	-tris	1G	-t)ris	.	.	.	.
2GG/	.	.	.	.	.	.	.
!	!	!LO:LB:g=original	!	!	!	!	!
2.BB-/	mi-	2rF	.	.	.	.	.
.	.	2D/	mi-	.	.	.	.
4C/	-ſe-	.	.	.	.	.	.
=77-	=77-	=77-	=77-	=77-	=77-	=77-	=77-
!	!	!	!	!LO:TX:t=P:problem:kreska pseudotaktowa	!	!LO:TX:t=P:problem:kreska pseudotaktowa	!
4D\	-re-	2.F/	-ſe-	00re	.	00rcc	.
4E\	.	.	.	.	.	.	.
2.F\	.	.	.	.	.	.	.
!	!	!LO:TX:t=P:problem:kreska pseudotaktowa	!	!	!	!	!
.	.	4G/	.	.	.	.	.
.	.	2A\	-re-	.	.	.	.
4E\	.	.	.	.	.	.	.
4D/	.	2.B-\	-re	.	.	.	.
!LO:TX:t=P:problem:kreska pseudotaktowa	!	!	!	!	!	!	!
4C/	.	.	.	.	.	.	.
=78-	=78-	=78-	=78-	=78-	=78-	=78-	=78-
2D/	-re	.	.	.	.	.	.
.	.	4A\	.	.	.	.	.
2BB-/	no-	1G	no-	.	.	.	.
1AA	.	.	.	.	.	.	.
!	!	!LO:TX:t=P:problem:kreska pseudotaktowa	!	!	!	!	!
.	.	2F/	.	.	.	.	.
=79-	=79-	=79-	=79-	=79-	=79-	=79-	=79-
2GG,</	-bis.	2G,/	-bis.	2r	.	2rb	.
1G	Quo-	1B-	Quo-	1d	Quo-	1dd	Quo-
!LO:TX:t=P:problem:kreska pseudotaktowa	!	!	!	!	!	!	!
2G\	-ni-	2B-\	-ni-	2d\	-ni-	2dd\	-ni-
=80-	=80-	=80-	=80-	=80-	=80-	=80-	=80-
2G\	-am	2B-\	-am	2d\	-am	2dd\	-am
!	!	!LO:TX:t=P:problem:kreska pseudotaktowa	!	!	!	!	!
2G\	Tu	2B-\	Tu	2g\	Tu	2dd\	Tu
2G\	so-	2d\	so-	2g\	so-	2dd\	so-
2G\	-l(us)	2d\	-l(us)	2g\	-l(us)	2dd\	-l(us)
=81-	=81-	=81-	=81-	=81-	=81-	=81-	=81-
!	!	!	!	!LO:TX:t=P:problem:kreska pseudotaktowa	!	!	!
1C	S(an)-	1e	San-	1g	San-	1cc	San-
!LO:TX:t=P:problem:kreska pseudotaktowa	!	!LO:TX:t=P:problem:kreska pseudotaktowa	!	!LO:TX:t=P:problem:kreska pseudotaktowa	!	!LO:TX:t=P:problem:kreska pseudotaktowa	!
1G	-ct(us).	1d	-ct(us)	0g	-ct(us)	0b-	-ct(us)
=82-	=82-	=82-	=82-	=82-	=82-	=82-	=82-
2r	.	2r	.	.	.	.	.
2G\	Tu	2d\	Tu	.	.	.	.
2G\	so-	2d\	so-	0r	.	0r	.
!	!	!LO:TX:t=P:problem:kreska pseudotaktowa	!	!	!	!	!
2D\	-l(us)	2d\	-l(us)	.	.	.	.
=83-	=83-	=83-	=83-	=83-	=83-	=83-	=83-
2E\	Do-	2c\	Do-	.	.	.	.
!LO:TX:t=P:problem:kreska pseudotaktowa	!	!	!	!	!	!	!
2F\	-mi-	2c\	-mi-	.	.	.	.
2G,\	-n(us)	2B-,\	-n(us)	2rf	.	2r	.
1G	Tu	1B-	Tu	1g	Tu	1dd	Tu
=84-	=84-	=84-	=84-	=84-	=84-	=84-	=84-
.	.	.	.	.	.	.	.
!LO:TX:t=P:problem:kreska pseudotaktowa	!	!LO:TX:t=P:problem:kreska pseudotaktowa	!	!	!	!	!
2G\	So-	2B-\	so-	2g\	So-	2dd\	so-
2B-\	-lus	2G/	-lus	2g\	-l(us)	2dd\	-l(us)
2B-\	al-	2G/	al-	2d\	al-	2dd\	al-
=85-	=85-	=85-	=85-	=85-	=85-	=85-	=85-
2A\	-tiſ-	2c\	-tiſ-	2e\	-tiſ-	2cc\	-tiſ-
2A\	-si-	2c\	-si-	2f\	-si-	2cc\	-si-
!LO:TX:t=P:problem:kreska pseudotaktowa	!	!LO:TX:t=P:problem:kreska pseudotaktowa	!	!LO:TX:t=P:problem:kreska pseudotaktowa	!	!LO:TX:t=P:problem:kreska pseudotaktowa	!
1G	-m(us)	1d	-mus	1g	-mus	1b-	-m(us)
=86-	=86-	=86-	=86-	=86-	=86-	=86-	=86-
1G	JE-	1B-	Je-	1d	Je-	1b-	Je-
2F\	-SU	2c\	-su	2f\	-ſU	2a\	.
1G	.	1B-	.	1e	.	2.b-\	-su
=87-	=87-	=87-	=87-	=87-	=87-	=87-	=87-
.	.	.	.	.	.	.	.
.	.	.	.	.	.	4a/	.
2D\	X-	1A	X-	1d	X-	4g/	.
.	.	.	.	.	.	4f/	.
1E	.	.	.	.	.	1g	X-
.	.	2G/	.	2c\	.	.	.
=88-	=88-	=88-	=88-	=88-	=88-	=88-	=88-
!	!	!LO:TX:t=P:problem:kreska pseudotaktowa	!	!	!	!	!
!LO:TX:t=P:problem:kreska pseudotaktowa	!	!LO:SIC:v:t=custos d	!	!LO:TX:t=P:problem:kreska pseudotaktowa	!	!LO:TX:t=P:problem:kreska pseudotaktowa	!
1D	-te	1A	-te	0d	-te.	0f	-te
!	!	!LO:LB:g=original	!	!	!	!	!
2r	.	2r	.	.	.	.	.
2D\	Cum	2d\	Cum	.	.	.	.
=89-	=89-	=89-	=89-	=89-	=89-	=89-	=89-
2D\	San-	2d\	S(an)-	0r	.	0r	.
!LO:TX:t=P:problem:kreska pseudotaktowa	!	!	!	!	!	!	!
2D\	-cto	2d\	-cto	.	.	.	.
2E\	Spi-	2c\	Spi-	.	.	.	.
!	!	!LO:TX:t=P:problem:kreska pseudotaktowa	!	!	!	!	!
1G	.	2B-\	-ri-	.	.	.	.
=90-	=90-	=90-	=90-	=90-	=90-	=90-	=90-
!	!	!	!	!LO:TX:t=P:problem:kreska pseudotaktowa	!	!LO:TX:t=P:problem:kreska pseudotaktowa	!
.	.	1.A	-tu	1r	.	1r	.
2F\	-ri-	.	.	.	.	.	.
!LO:TX:t=P:problem:kreska pseudotaktowa	!	!	!	!	!	!	!
0G	-tu	.	.	2r	.	2r	.
!	!	!LO:TX:t=P:problem:kreska pseudotaktowa	!	!	!	!	!
.	.	2B-\	in	2d\	in	2dd\	in
=91-	=91-	=91-	=91-	=91-	=91-	=91-	=91-
.	.	2B-\	glo-	2d\	glo-	2dd\	glo-
.	.	2B-\	-ri-	2d\	-ri-	2dd\	-ri-
!LO:TX:t=P:problem:kreska pseudotaktowa	!	!	!	!	!	!	!
0r	.	2A/	-a	2e\	-a	2cc\	-a
!	!	!LO:TX:t=P:problem:kreska pseudotaktowa	!	!	!	!	!
.	.	2G/	De-	1g	De-	2b-\	De-
=92-	=92-	=92-	=92-	=92-	=92-	=92-	=92-
!	!	!	!	!	!	!LO:TX:t=P:problem:kreska pseudotaktowa	!
.	.	1d	.	.	.	1a	-i
!	!	!	!	!LO:TX:t=P:problem:kreska pseudotaktowa	!	!	!
.	.	.	.	2f\	.	.	.
2r	.	2G/	-i	2g\	-i	2r	.
2G\	in	1d\	Pa-	4G/	Pa-	2b-\	in
.	.	.	.	4A/	.	.	.
=93-	=93-	=93-	=93-	=93-	=93-	=93-	=93-
2G\	glo-	.	.	4B-/	.	2b-\	glo-
.	.	.	.	4c/	.	.	.
2G\	-ri-	2B-\	.	4d/	.	2b-\	-ri-
.	.	.	.	4e/	.	.	.
2F\	-a	2c\	-tris	2f\	.	2a\	-a
!LO:TX:t=P:problem:kreska pseudotaktowa	!	!	!	!LO:TX:t=P:problem:kreska pseudotaktowa	!	!LO:TX:t=P:problem:kreska pseudotaktowa	!
2E\	De-	2G/	A-	2c\	-tris	2g/	.
=94-	=94-	=94-	=94-	=94-	=94-	=94-	=94-
2.D\	-i	2A\	.	2d\	A-	2.dd\	De-
!	!	!LO:TX:t=P:problem:kreska pseudotaktowa	!	!	!	!	!
.	.	2d\	.	1f	.	.	.
4E\	.	.	.	.	.	8cc\L	-i
.	.	.	.	.	.	8b-\J	.
2F\	Pa-	2c\	.	.	.	2a\	Pa-
2G\	.	2B-\	.	2d\	.	2b-\	-tris
=95-	=95-	=95-	=95-	=95-	=95-	=95-	=95-
2C/	.	(4c/	.	2e\	.	4a/	.
.	.	4B-/	.	.	.	4g/	.
2E\	-tris	4A/	.	2c\	.	1g	A-
.	.	4G/)	.	.	.	.	.
1D	A-	1A	.	1d	.	.	.
!	!	!	!	!	!	!LO:TX:t=P:problem:♯ above	!
.	.	.	.	.	.	2f#X/	.
=96-	=96-	=96-	=96-	=96-	=96-	=96-	=96-
0GGl;	-men.	0Bnl;	-men	0dl;	-men.	0gl;	-men.
==	==	==	==	==	==	==	==
*-	*-	*-	*-	*-	*-	*-	*-
!!!system-decoration: [g1]
!!!RDF**kern: > = above
!!!RDF**kern: < = below
!!!RDF**kern: l = terminal long
!!!AIN: 1 alto 1 bass 1 soprn 1 tenor
!!!ENC: Andrzej Kubiczek
!!!END: 2021-03-17
!!!ENC: Andrzej Gręziak
!!!END: 2021-03-03
